X:1
T:Title
%%score { ( 1 4 ) | ( 2 3 ) }
L:1/8
M:4/4
K:Bb
V:1 treble nm="Grand Piano"
V:4 treble 
V:2 bass 
V:3 bass 
V:1
 z4 z2[Q:1/4=100] [Fd]2 | [Ec]3 [GB] [EG]2 [EF]2 | [DB]2 [DB]2 [DB]2 [CA]B | c2 c2 [Fc]2 F-[Fc] | %4
[M:3/4] [Fd]2 d2 d2 |[M:1/4] [Fd]2 |[M:4/4] c3 B G2 F2 | [DB]2 [DB]2 [DB]2 [DF]2 | GB z2 Ac z F | %9
[M:3/4] [DB]4 z2 |[M:1/4] B>c |[M:4/4] d3 B d3 d | edcB G2 [GB]>G | F2 F2 B2 [FB]>[Fc] | %14
[M:3/4] [Fd]2[K:bass][K:treble] [Fd]2 z2 |[M:1/4] B>c |[M:4/4] d3 B d3 d | edcB G2 [GB]>G | %18
 F2 B>c d2 c2 |[M:3/4] [DB]6 |] %20
V:2
 z4 z2 [B,,B,]2 | [E,G,]3 [E,B,] [E,B,]2 [F,A,]2 | [B,,B,]2 [B,,B,]2 [B,,B,]2 z D | %3
 [F,A,F]2 [F,A,F]2 [F,A,]E,D,A, |[M:3/4] [B,,B,]2[K:treble] [B,F]2 [B,F]2 | %5
[M:1/4][K:bass] [B,,B,]2 |[M:4/4] [E,G,E]3 [E,G,E] [E,B,E]2 [F,A,E]2 | %7
 [B,,B,]2 [B,,B,]2 [B,,B,]2 [B,,B,]2 | [E,B,E][E,G,E] z2 [F,C][F,A,E] z [F,A,E] | %9
[M:3/4] [B,,B,]4 z2 |[M:1/4][K:treble] [B,D]>[B,E] |[M:4/4] [B,F]3 [B,D] [B,F]3 [B,F] | %12
 [B,G][B,F][K:bass][B,E][B,D] [E,B,E]2 [E,B,]>[E,B,E] | [F,A,C]2 [E,A,C]2 [D,B,D]2 [D,B,]>[F,A,] | %14
[M:3/4] [B,,B,]2 [D,B,]2[K:treble] [F,A,F]2 |[M:1/4] [B,D]>[B,E] | %16
[M:4/4] [B,F]3 [B,D] [B,F]3 [B,F] | [B,G][B,F][K:bass][B,E][B,D] [E,B,E]2 [E,B,]>[E,B,E] | %18
 [F,B,D]2 [F,B,D]>[F,B,E] [F,B,F]2 [F,A,E]2 |[M:3/4] [B,,B,]6 |] %20
V:3
 x8 | x8 | z4 z2 F,2 | x8 |[M:3/4] x2[K:treble] x4 |[M:1/4][K:bass] x2 |[M:4/4] x8 | x8 | x8 | %9
[M:3/4] x6 |[M:1/4][K:treble] x2 |[M:4/4] x8 | x2[K:bass] x6 | x8 |[M:3/4] x4[K:treble] x2 | %15
[M:1/4] x2 |[M:4/4] x8 | x2[K:bass] x6 | x8 |[M:3/4] x6 |] %20
V:4
 x8 | x8 | x8 | z4 z2 .[B,B]2 |[M:3/4] x6 |[M:1/4] x2 |[M:4/4] x8 | x8 | x8 |[M:3/4] x6 | %10
[M:1/4] x2 |[M:4/4] x8 | x8 | x8 |[M:3/4] z z/[K:bass] C,/[K:treble] z z/ E,/ c2 |[M:1/4] x2 | %16
[M:4/4] x8 | x8 | x8 |[M:3/4] x6 |] %20

